svg/Pictogram/pictograms-aem-0096-large_falling_object_from_above.svg

<?xml version="1.0" encoding="ISO-8859-1" standalone="yes"?>
<svg height="304.011" width="304.014">
  <metadata>
    <rdf:RDF xmlns:cc="http://web.resource.org/cc/" xmlns:dc="http://purl.org/dc/elements/1.1/" xmlns:rdf="http://www.w3.org/1999/02/22-rdf-syntax-ns#">
      <cc:Work rdf:about="">
        <dc:title></dc:title>
        <dc:description></dc:description>
        <dc:subject>
          <rdf:Bag>
            <rdf:li></rdf:li>
          </rdf:Bag>
        </dc:subject>
        <dc:publisher>
          <cc:Agent rdf:about="http://www.unece.org/trans/danger/publi/ghs/pictograms.html">
            <dc:title>Source: UNECE GHS of Classification and Labeling of Chemicals, Source: AEM Pictorial Database, Source: AEM Pictorial Database, Source: AEM Pictorial Database, Source: AEM Pictorial Database</dc:title>
          </cc:Agent>
        </dc:publisher>
        <dc:creator>
          <cc:Agent>
            <dc:title></dc:title>
          </cc:Agent>
        </dc:creator>
        <dc:rights>
          <cc:Agent>
            <dc:title></dc:title>
          </cc:Agent>
        </dc:rights>
        <dc:date></dc:date>
        <dc:format>image/svg+xml</dc:format>
        <dc:type rdf:resource="http://purl.org/dc/dcmitype/StillImage"/>
        <cc:license rdf:resource="http://en.wikipedia.org/wiki/Public_domain"/>
        <dc:language>en</dc:language>
      </cc:Work>
    </rdf:RDF>
  </metadata>
  <defs><marker id="ArrowEnd" markerHeight="3" markerUnits="strokeWidth" markerWidth="4" orient="auto" refX="0" refY="5" viewBox="0 0 10 10"><path d="M 0 0 L 10 5 L 0 10 z"/></marker><marker id="ArrowStart" markerHeight="3" markerUnits="strokeWidth" markerWidth="4" orient="auto" refX="10" refY="5" viewBox="0 0 10 10"><path d="M 10 0 L 0 5 L 10 10 z"/></marker> </defs>
  <g id="g2958" transform="matrix(1.3532768,0,0,1.3532781,-53.207834,-52.192858)">
    <path d="M 161.827 118.507C 161.827 130.929 147.772 133.425 142.995 129.066C 133.858 120.742 124.518 110.589 112.542 107.745L 120.054 123.179L 106.042 120.335L 92.7415 97.9994L 114.163 81.7534L 128.175 85.2064L 116.397 95.3594C 127.768 99.0154 146.854 114.449 146.854 114.449C 146.854 114.449 147.921 114.859 147.921 113.738C 147.921 112.613 147.921 50.4884 147.921 50.4884L 161.827 50.4884C 161.827 50.4884 161.827 106.085 161.827 118.507" style="stroke:none; fill-rule:evenodd; fill:#000000"/>
    <path d="M 128.343 171.495L 125.655 171.011L 126.194 168.023L 120.71 167.035L 120.171 170.027L 117.21 169.492L 116.225 174.972L 119.182 175.507L 118.706 178.163L 124.186 179.152L 124.667 176.495L 127.354 176.98L 128.343 171.495zM 162.987 126.734C 187.444 134.035 199.054 158.89 199.054 176.066C 199.054 212.863 175.108 242.121 138.413 244.777L 120.35 244.816C 111.097 244.816 103.593 237.312 103.593 228.058L 103.593 205.469L 91.3899 203.617C 89.304 202.937 88.3118 202.937 87.9759 200.683C 87.8938 200.132 88.2806 198.894 88.4642 198.398L 93.7376 183.773L 102.378 159.816L 102.944 158.245C 103.819 155.941 104.882 153.773 106.108 151.742C 113.335 139.785 125.081 130.538 136.714 126.652C 136.714 126.652 140.901 134.831 149.792 134.831C 160.022 134.831 162.987 126.734 162.987 126.734" style="stroke:none; fill-rule:evenodd; fill:#000000"/>
    <path d="M 29.6204 265.39L 2.62042 265.39" style="stroke:#000000; stroke-width:0.5; fill:none"/>
    <path d="M 38.6204 274.39L 38.6204 301.39" style="stroke:#000000; stroke-width:0.5; fill:none"/>
    <path d="M 29.6204 38.6204L 2.62042 38.6204" style="stroke:#000000; stroke-width:0.5; fill:none"/>
    <path d="M 38.6204 29.6204L 38.6204 2.62042" style="stroke:#000000; stroke-width:0.5; fill:none"/>
    <path d="M 274.393 38.6204L 301.393 38.6204" style="stroke:#000000; stroke-width:0.5; fill:none"/>
    <path d="M 265.393 29.6204L 265.393 2.62042" style="stroke:#000000; stroke-width:0.5; fill:none"/>
    <path d="M 274.393 265.39L 301.393 265.39" style="stroke:#000000; stroke-width:0.5; fill:none"/>
    <path d="M 265.393 274.39L 265.393 301.39" style="stroke:#000000; stroke-width:0.5; fill:none"/>
  </g>
</svg>

<svg viewBox="0 0 304.01 304.01"><g transform="matrix(1.35328 0 0 1.35328-53.21-52.19)" fill-rule="evenodd"><path d="m161.83 118.51c0 12.422-14.06 14.918-18.832 10.559-9.137-8.324-18.477-18.477-30.453-21.321l7.512 15.434-14.01-2.844-13.3-22.336 21.421-16.246 14.01 3.453-11.778 10.153c11.371 3.656 30.457 19.09 30.457 19.09 0 0 1.067.41 1.067-.711 0-1.125 0-63.25 0-63.25h13.906c0 0 0 55.6 0 68.02"/><path d="m128.34 171.5l-2.688-.484.539-2.988-5.484-.988-.539 2.992-2.961-.535-.985 5.48 2.957.535-.476 2.656 5.48.989.481-2.657 2.687.485.989-5.485m34.644-44.761c24.457 7.301 36.07 32.16 36.07 49.33 0 36.797-23.946 66.06-60.64 68.71l-18.06.039c-9.253 0-16.757-7.504-16.757-16.758v-22.589l-12.203-1.852c-2.086-.68-3.078-.68-3.414-2.934-.082-.551.305-1.789.488-2.285l5.273-14.625 8.64-23.957.566-1.571c.875-2.304 1.938-4.472 3.164-6.503 7.227-11.957 18.973-21.2 30.606-25.09 0 0 4.187 8.179 13.08 8.179 10.23 0 13.195-8.097 13.195-8.097"/></g></svg>
